X:120
T: Carl's Couch
C: Johnny Harling
Z: B.Black
R: reel
M: 4/4
L: 1/8
K: Edor
D | EBAF G2 eB | B2 GB FBeB | dF F2 D2 dB | AF F2 DFAF |
EBAF G2 eB | B2 GB FBeB | dF F2 DFdB | AF F2 E3 :|
f | g3 f gB B2 | GB B2 dBeB | f3 e fA A2 | fgaf gfef |
g3 f gB B2 | GB B2 dBeB | f3 e defe | dBAF E3 :|
